packages/radix-icons/twoTone/15/divider-vertical.svg

<svg width="15" height="15" fill="none" xmlns="http://www.w3.org/2000/svg">
  <path
    fill-rule="evenodd"
    clip-rule="evenodd"
    d="M7.5 1.5C8.05228 1.5 8.5 1.94772 8.5 2.5L8.5 12.5C8.5 13.0523 8.05229 13.5 7.5 13.5C6.94772 13.5 6.5 13.0523 6.5 12.5L6.5 2.5C6.5 1.94772 6.94772 1.5 7.5 1.5Z"
    fill="currentColor"
    opacity=".2"
  />
  <path
    fill-rule="evenodd"
    clip-rule="evenodd"
    d="M7.50001 2C7.77615 2 8.00001 2.22386 8.00001 2.5L8.00001 12.5C8.00001 12.7761 7.77615 13 7.50001 13C7.22387 13 7.00001 12.7761 7.00001 12.5L7.00001 2.5C7.00001 2.22386 7.22386 2 7.50001 2Z"
    fill="currentColor"
  />
</svg>

<svg width="15" height="15" fill="none" xmlns="http://www.w3.org/2000/svg">
  <path
    fill-rule="evenodd"
    clip-rule="evenodd"
    d="M7.5 1.5a1 1 0 011 1v10a1 1 0 11-2 0v-10a1 1 0 011-1z"
    fill="currentColor"
    opacity=".2"
  />
  <path
    fill-rule="evenodd"
    clip-rule="evenodd"
    d="M7.5 2a.5.5 0 01.5.5v10a.5.5 0 01-1 0v-10a.5.5 0 01.5-.5z"
    fill="currentColor"
  />
</svg>
